world_stage/static/flags/rect/vct.svg

<svg height="400" viewBox="0 0 600 400" width="600" xmlns="http://www.w3.org/2000/svg"><g transform="matrix(1.3333333 0 0 -1.3333333 0 400)"><path d="m0 0h450v300h-450z" fill="#009e60"/><path d="m0 0h337.5v300h-337.5z" fill="#fcd116"/><path d="m0 0h112.5v300h-112.5z" fill="#0072c6"/></g><g fill="#009e60"><path d="m0 0 25-50 25 50-25 50z" transform="matrix(1.3333333 0 0 -1.3333333 266.66667 283.33333)"/><path d="m0 0 25-50 25 50-25 50z" transform="matrix(1.3333333 0 0 -1.3333333 225 200)"/><path d="m0 0 25-50 25 50-25 50z" transform="matrix(1.3333333 0 0 -1.3333333 308.33333 200)"/></g></svg>

<?xml version="1.0" encoding="UTF-8" standalone="no"?>
<!-- Created with Inkscape (http://www.inkscape.org/) -->

<svg
   version="1.1"
   id="svg1"
   width="600"
   height="400"
   viewBox="0 0 600 400"
   sodipodi:docname="vc.ai"
   xmlns:inkscape="http://www.inkscape.org/namespaces/inkscape"
   xmlns:sodipodi="http://sodipodi.sourceforge.net/DTD/sodipodi-0.dtd"
   xmlns="http://www.w3.org/2000/svg"
   xmlns:svg="http://www.w3.org/2000/svg">
  <defs
     id="defs1" />
  <sodipodi:namedview
     id="namedview1"
     pagecolor="#ffffff"
     bordercolor="#000000"
     borderopacity="0.25"
     inkscape:showpageshadow="2"
     inkscape:pageopacity="0.0"
     inkscape:pagecheckerboard="0"
     inkscape:deskcolor="#d1d1d1">
    <inkscape:page
       x="0"
       y="0"
       inkscape:label="1"
       id="page1"
       width="600"
       height="400"
       margin="0"
       bleed="0" />
  </sodipodi:namedview>
  <g
     id="layer-MC0"
     inkscape:groupmode="layer"
     inkscape:label="Layer 1">
    <path
       id="path1"
       d="M 0,0 H 450 V 300 H 0 Z"
       style="fill:#009e60;fill-opacity:1;fill-rule:nonzero;stroke:none"
       transform="matrix(1.3333333,0,0,-1.3333333,0,400)" />
    <path
       id="path2"
       d="M 0,0 H 337.5 V 300 H 0 Z"
       style="fill:#fcd116;fill-opacity:1;fill-rule:nonzero;stroke:none"
       transform="matrix(1.3333333,0,0,-1.3333333,0,400)" />
    <path
       id="path3"
       d="M 0,0 H 112.5 V 300 H 0 Z"
       style="fill:#0072c6;fill-opacity:1;fill-rule:nonzero;stroke:none"
       transform="matrix(1.3333333,0,0,-1.3333333,0,400)" />
    <path
       id="path4"
       d="M 0,0 25,-50 50,0 25,50 Z"
       style="fill:#009e60;fill-opacity:1;fill-rule:nonzero;stroke:none"
       transform="matrix(1.3333333,0,0,-1.3333333,266.66667,283.33333)" />
    <path
       id="path5"
       d="M 0,0 25,-50 50,0 25,50 Z"
       style="fill:#009e60;fill-opacity:1;fill-rule:nonzero;stroke:none"
       transform="matrix(1.3333333,0,0,-1.3333333,225,200)" />
    <path
       id="path6"
       d="M 0,0 25,-50 50,0 25,50 Z"
       style="fill:#009e60;fill-opacity:1;fill-rule:nonzero;stroke:none"
       transform="matrix(1.3333333,0,0,-1.3333333,308.33333,200)" />
  </g>
</svg>
